_uploads/pattern-events-left.svg

<svg width="300" height="340" fill="none" xmlns="http://www.w3.org/2000/svg"><path fill-rule="evenodd" clip-rule="evenodd" d="M0 0h120v40h60v60h-20v20h-20v-20h-20v40h-20v-20H60V60H0V0zm120 140v20h20v-20h-20zM0 120h20v40H0v-40zm40 80v-20H0v60h20v-20h40v-20H40zm40-40H60v20h20v-20zm80 0h20v20h-20v-20z" fill="#000"/><path fill-rule="evenodd" clip-rule="evenodd" d="M140 0h-20v20h20v20h20V20h20v20h20v20h20V40h19V20h-19V0h-20v20h-20V0h-20v20h-20V0zm60 20h19v20h-19V20zM20 60h20v20H20V60zm0 40H0V80h20v20zm20 0H20v20h20v20H20v20H0v20h20v-20h20v20h20v20h20v-20H60v-20H40v-20h20v-20H40v-20zm0 0h20V80H40v20zM0 240h20v20H0v-20zm20 20h20v20H20v-20zm40 40h20v20H60v-20zm0 20v20H40v-20h20zm40-140h20v20h-20v-20zm20-20h-20v-20h20v20zm20 0h-20v20h20v20h20v20h20v-20h-20v-20h-20v-20zm0-20h20v20h-20v-20zm0 0v-20h-20v20h20zm60 0h-20v20h20v20h20v-20h20v-20h-20v-20h-20v20zm0 0h20v20h-20v-20zm40-60h20v20h-20V80zm40 20v20h-20v-20h20zm0-20h20v20h-20V80zm0 0V60h-20v20h20zm-20 100h20v20h-20v-20zm0 20v20h-20v-20h20z" fill="#F1F1F1"/></svg>

<svg width="300" height="340" viewBox="0 0 300 340" fill="none" xmlns="http://www.w3.org/2000/svg">
<path fill-rule="evenodd" clip-rule="evenodd" d="M0 0H60H120V40H180V100H160V120H140V100H120V120V140H100V120H60V60H0V0ZM120 140V160H140V140H120ZM0 120H20V160H0V120ZM40 200V180H0V220V240H20V220H40H60V200H40ZM80 160H60V180H80V160ZM160 160H180V180H160V160Z" fill="black"/>
<path fill-rule="evenodd" clip-rule="evenodd" d="M140 0H120V20H140V40H160V20H180V40H200V60H220V40H239V20H220V0H200V20H180V0H160V20H140V0ZM200 20H219V40H200V20ZM20 60H40V80H20V60ZM20 100H0V80H20V100ZM40 100H20V120H40V140H20V160H0V180H20V160H40V180H60V200H80V180H60V160H40V140H60V120H40V100ZM40 100H60V80H40V100ZM0 240H20V260H0V240ZM20 260H40V280H20V260ZM60 300H80V320H60V300ZM60 320V340H40V320H60ZM100 180H120V200H100V180ZM120 160H100V140H120V160ZM140 160H120V180H140V200H160V220H180V200H160V180H140V160ZM140 140H160V160H140V140ZM140 140V120H120V140H140ZM200 140H180V160H200V180H220V160H240V140H220V120H200V140ZM200 140H220V160H200V140ZM240 80H260V100H240V80ZM280 100V120H260V100H280ZM280 80H300V100H280V80ZM280 80V60H260V80H280ZM260 180H280V200H260V180ZM260 200V220H240V200H260Z" fill="#F1F1F1"/>
</svg>
